!!!!SEGMENT: pl-wtm--r-1607--007_stefani-jozef--requiem-salve-regina.krn
!!!cenid: 18xx:2362
!!!COM: Stefani, Józef
!!!COM-rismid: pe30024097
!!!CDT: 1800/04/16-1876/03/19
!!!CNT: Polish
!!!OPR: Requiem
!!!OTL: Salve Regina
!!!OMV: 007
!!!PDT:
!!!AGN: Sacred; Requiem
!!!SMS-siglum: PL-Wtm
!!!SMS-shelfmark: R 1607
!!!SMS-shelfwork: 001-007 M
!!!SMS-variant:
!!!SMS-altvar:
!!!NIFC-rismid: 1001115431
!!!OMD: Andante.
!!!system-decoration: {(s1,s2,s3)}{(s4,s5)}
**kern	**kern	**kern	**text	**text	**dynam	**kern	**text	**kern	**text	**dynam
*part5	*part4	*part3	*part3	*part3	*part3	*part2	*part2	*part1	*part1	*part1
*staff5	*staff4	*staff3	*staff3	*staff3	*	*staff2	*staff2	*staff1	*staff1	*
*Iempty	*Iorgan	*Iempty	*	*	*	*Itenor	*	*Itenor	*	*
*	*I"Organo ad libitum	*I"Basſo	*	*	*	*I"Tenore IIo.	*	*I"Tenore Io.	*	*
*	*I'org	*I'B	*	*	*	*I'T 2	*	*I'T 1	*	*
*clefF4	*clefG2	*clefF4	*	*	*	*clefGv2	*	*clefGv2	*	*
*k[b-e-]	*k[b-e-]	*k[b-e-]	*	*	*	*k[b-e-]	*	*k[b-e-]	*	*
*B-:	*B-:	*B-:	*	*	*	*B-:	*	*B-:	*	*
*M4/4	*M4/4	*M4/4	*	*	*	*M4/4	*	*M4/4	*	*
*met(c)	*met(c)	*met(c)	*	*	*	*met(c)	*	*met(c)	*	*
=1	=1	=1	=1	=1	=1	=1	=1	=1	=1	=1
*2\right	*2\right	*2\right	*	*	*	*2\right	*	*2\right	*	*
!!LO:TX:t=P:problem:all\right:global
!	!	!	!	!	!	!LO:TX:t=P:problem:w źródle brak przenośnika oktawowego przy kluczu	!	!LO:TX:t=P:problem:w źródle brak przenośnika oktawowego przy kluczu	!	!
2c 2A 2F\	2ff 2a 2f\	2F\	Sal-	.	f	2A/	.	2f\	.	f
4e- 4G 4E-\	4gg 4b- 4g\	4E-\	-ve	.	.	4B-/	.	4g\	.	.
4d 4B- 4D\	4ff 4b- 4f\	4D\	Re-	.	.	4B-/	.	4f\	.	.
=2	=2	=2	=2	=2	=2	=2	=2	=2	=2	=2
*^	*	*	*	*	*	*	*	*	*	*
*	*	*^	*	*	*	*	*	*	*	*	*
*	*^	*	*	*	*	*	*	*	*	*	*	*
2c/	4G/	2C\	4.ff/	4g\	2C/	-gi-	.	.	(<4G/	.	4.f\	.	.
.	4A/	.	.	4a 4f\	.	.	.	.	4A/)	.	.	.	.
.	.	.	8ee-/	.	.	.	.	.	.	.	8e-\	.	.
4B- 4F 4BB-\	2ryy	2ryy	4dd/	4b- 4f\	4BB-/	-na	.	.	4B-/	.	4d\	.	.
4r	.	.	4r	4ryy	4r	.	.	.	4r	.	4r	.	.
*	*v	*v	*	*	*	*	*	*	*	*	*	*	*
*v	*v	*	*	*	*	*	*	*	*	*	*	*
*	*v	*v	*	*	*	*	*	*	*	*	*
=3	=3	=3	=3	=3	=3	=3	=3	=3	=3	=3
!	!	!	!	!	!LO:DY:a:rj	!	!	!	!	!LO:DY:a:rj
2c 2A 2F\	2cc 2a 2f/	4F\	Ma-	.	p	4A/	.	4c\	.	p
.	.	8F\	-ter	.	.	8A/	.	8c\	.	.
.	.	8F\	mi-	.	.	8A/	.	8c\	.	.
4B- 4F 4BB-\	4dd 4b- 4f/	4BB-/	-se-	.	.	4B-/	.	4d\	.	.
4B- 4F 4D\	4b- 4f/	4D\	-ri-	.	.	4G/	.	4B-\	.	.
=4	=4	=4	=4	=4	=4	=4	=4	=4	=4	=4
4.c 4.A 4.F\	4.cc 4.a 4.f/	4.F\	-cor-	.	.	4.A/	.	4.c\	.	.
8d 8B- 8F\	8dd 8b- 8f/	8F\	-di-	.	.	8B-/	.	8d\	.	.
4c 4A 4F\	4cc 4a 4f/	4F\	-a	.	.	4A/	.	4c\	.	.
4r	4r	4r	.	.	.	4r	.	4r	.	.
!!LO:LB:g=original
=5	=5	=5	=5	=5	=5	=5	=5	=5	=5	=5
!	!	!	!	!	!LO:DY:a:rj	!	!	!	!	!LO:DY:a:rj
!	!	!	!	!	!	!	!	!	!	!LO:HP:a
2e- 2B- 2G\	2ee- 2b- 2g\	2G\	vi-	.	f	2B-\	.	2e-\	.	f >
4d 4B- 4F\	4dd 4b-\	4F\	-ta	.	.	4B-\	.	4d\	.	]
8r	8r	8r	.	.	.	8r	.	8r	.	.
8B-\	8b-\	8BB-/	dul-	.	.	8B-\	.	8B-\	.	.
=6	=6	=6	=6	=6	=6	=6	=6	=6	=6	=6
2e- 2B- 2G 2E-\	2gg 2ee- 2b- 2g\	2E-\	-ce-	.	.	2B-\	.	2g\	.	.
8d 8B- 8F 8D\	8ff 8b- 8f\	8D\	-do	.	.	8B-\	.	8f\	.	.
8r	8r	8r	.	.	.	8r	.	8r	.	.
4B- 4F 4D\	4ff 4b- 4f\	(>4D\	et	.	.	[>4B-\	.	(>4f\	.	.
=7	=7	=7	=7	=7	=7	=7	=7	=7	=7	=7
4c 4G 4C\	4een 4b- 4g\	4C/)	.	.	.	4B-\]	.	4en\)	.	.
4c 4A 4F\	4ee-X 4a 4f/	4F\	spes	.	.	4A/	.	4e-X\	.	.
4B- 4BB-\	4dd 4b- 4f/	4BB-/	nos-	.	.	4B-\	.	4d\	.	.
4G 4GG/	4b- 4g/	4G\	-tram	.	.	4G/	.	4B-\	.	.
=8	=8	=8	=8	=8	=8	=8	=8	=8	=8	=8
2d 2B- 2F\	2dd 2b- 2f/	2F\	sal-	.	.	2B-\	.	2d\	.	.
4c 4A 4F\	4cc 4a 4f/	4F\	-ve	.	.	4A\	.	4c\	.	.
4r	4r	4r	.	.	.	4r	.	4r	.	.
=9	=9	=9	=9	=9	=9	=9	=9	=9	=9	=9
*^	*	*	*	*	*	*	*	*	*	*
*	*	*^	*	*	*	*	*	*	*	*	*
!	!	!	!	!	!	!	!	!	!	!	!	!LO:DY:a
4r	4ryy	4r	4ryy	4r	.	.	.	4r	.	4r	.	p
2c/	4A 4F\	2cc/	4a 4f\	4F\	Ad	.	.	4A/	.	4c\	.	.
.	4G 4En\	.	4g\	4En\	te	.	.	4G/	.	4c\	.	.
8d/L	8AL 8D\	8a/L	4f\	(8D\L	cla-	.	.	4F/	.	8A\L	.	.
8d-X/J	8GJ 8D-X\	8bn/J	.	8D-X\J)	.	.	.	.	.	8Bn\J	.	.
!!LO:PB:g=original
=10	=10	=10	=10	=10	=10	=10	=10	=10	=10	=10	=10	=10
2c 2G 2C\	2.ryy	4.cc/	2en\	2C/	-ma-	.	.	2En/	.	(>4.c\	.	.
.	.	8b-/	.	.	.	.	.	.	.	8B-X\)	.	.
4c 4A 4F\	.	4a/	4f\	4F\	-mus	.	.	4F/	.	4A\	.	.
8dL 8B-/	4F\	8ddL 8b-/	4f\	4F\	e-	.	.	(<8B-/L	.	(>8d\L	.	.
8cJ 8A/	.	8ccJ 8a/	.	.	.	.	.	8A/J)	.	8c\J)	.	.
*v	*v	*	*	*	*	*	*	*	*	*	*	*
=11	=11	=11	=11	=11	=11	=11	=11	=11	=11	=11	=11
2c 2G 2En\	4.cc/	2g\	2En\	-xu-	.	.	2G/	.	(>4.c\	.	.
.	8b-/	.	.	.	.	.	.	.	8B-\)	.	.
8cL 8A 8F\	4a/	4f\	8F\	-les	.	.	8F/	.	8A/	.	.
8dJ 8D\	.	.	8D\	fi-	.	.	8F/	.	8A/	.	.
8B-L 8BB-\	8b-L 8g/	4ryy	8BB-/	-li-	.	.	8G/	.	8B-\	.	.
8GJ 8GG\	8ddJ 8b-/	.	8GG/	-i	.	.	8B-/	.	8d\	.	.
*	*v	*v	*	*	*	*	*	*	*	*	*
=12	=12	=12	=12	=12	=12	=12	=12	=12	=12	=12
2A 2F 2C\	2a 2f/	2C/	He-	.	.	2F/	.	2A/	.	.
8c 8G 8En 8C\	8g 8en/	8C/	-vae	.	.	8En/	.	8G/	.	.
8r	8r	8r	.	.	.	8r	.	8r	.	.
!	!	!	!	!	!LO:DY:a:rj	!	!	!	!	!LO:DY:a:rj
4c 4C\	4cc\	4C/	Ad	.	f	4c\	.	4c\	.	f
=13	=13	=13	=13	=13	=13	=13	=13	=13	=13	=13
2d 2A 2D\	2ff 2a 2f\	2D\	te	.	.	2A/	.	2f\	.	.
4d 4A 4D\	4a 4f/	4D\	sus-	.	.	4F/	.	4A\	.	.
4d-X 4G 4D-X\	4bn 4g 4f/	4D-X\	-pi-	.	.	4F/	.	4Bn\	.	.
!!LO:LB:g=original
=14	=14	=14	=14	=14	=14	=14	=14	=14	=14	=14
4c 4G 4C\	4cc 4g 4en/	4C/	-ra-	.	.	4En/	.	4c\	.	>
2c#X 2G 2C#X\	2b- 2g 2e/	2C#X/	-mus	.	.	2E/	.	2B-X\	.	.
4d 4F 4D\	4a 4f/	4Dn/	[[et	ge-	.	4F/	.	4A/	.	]
=15	=15	=15	=15	=15	=15	=15	=15	=15	=15	=15
!	!	!	!	!	!LO:DY:a:rj	!	!	!	!	!LO:DY:a:rj
2.B- 2.G 2.BB-\	2g 2f 2d/	2BB-/	flen-	-men-	p	2F/	.	2G/	.	p
.	4dd 4f 4d/	4BB-/	-tes]]	-tes	.	4F/	.	4d\	.	.
4Bn 4G 4BBn\	4g 4f 4d/	4BBn/	et	.	.	4F/	.	4G/	.	.
=16	=16	=16	=16	=16	=16	=16	=16	=16	=16	=16
2A 2F 2C\	2a 2f 2c/	2C/	flen-	.	.	2F/	.	2A/	.	.
8G 8En 8C\	8g 8en 8c/	8C/	-tes,	.	.	8En/	.	8G/	.	.
8r	8r	8r	.	.	.	8r	.	8r	.	.
4c 4G 4C\	4cc 4g 4e/	4C/	in	.	<[	4E/	.	4c\	.	<[
=17	=17	=17	=17	=17	=17	=17	=17	=17	=17	=17
!	!	!	!	!	!LO:DY:a:rj	!	!	!	!	!LO:DY:a:rj
2.B- 2.F 2.BB-\	2.dd 2.b- 2.f/	2BB-/	hac	.	f	2F/	.	2d\	.	f
.	.	4BB-/	la-	.	.	4F/	.	4d\	.	.
4B- 4G 4BB-\	4een 4cc 4g 4en/	4BB-/	-cri-	.	.	4G/	.	4en\	.	.
=18	=18	=18	=18	=18	=18	=18	=18	=18	=18	=18
2A 2F 2AA\	2ff 2cc 2f/	2AA/	-ma-	.	.	2F/	.	2f\	.	.
2B- 2F 2D 2BB-\	2dd 2b- 2f/	2BB-/	-rum	.	.	2F/	.	2d\	.	.
!!LO:PB:g=original
=19	=19	=19	=19	=19	=19	=19	=19	=19	=19	=19
*	*^	*	*	*	*	*	*	*	*	*
2c 2A 2F 2C\	4cc/	2a 2f\	1C	va-	.	.	2A/	.	(>4c\	.	.
.	2ff/	.	.	.	.	.	.	.	2f\	.	.
2c 2G 2C\	.	2b- 2g\	.	.	.	.	2G/	.	.	.	.
.	4een/	.	.	.	.	.	.	.	4en\)	.	.
=20	=20	=20	=20	=20	=20	=20	=20	=20	=20	=20	=20
4c 4A 4F\	4ff/	4a 4f\	4F\	-le	.	.	4A/	.	4f\	.	.
4r	4r	4ryy	4r	.	.	.	4r	.	4r	.	.
4F\	2r	2ryy	4F\	E-	.	.	2r	.	2r	.	.
4E-\	.	.	4E-\	-ja	.	.	.	.	.	.	.
*	*v	*v	*	*	*	*	*	*	*	*	*
=21	=21	=21	=21	=21	=21	=21	=21	=21	=21	=21
2.D-X\	2r	4.D-X\	er-	.	.	1r	.	2r	.	.
.	.	8D-\	-go	.	.	.	.	.	.	.
.	4f/	4D-\	E-	.	.	.	.	4f\	E-	.
4C/	4e-/	4C/	-ja	.	.	.	.	4e-\	-ja	.
=22	=22	=22	=22	=22	=22	=22	=22	=22	=22	=22
*^	*	*	*	*	*	*	*	*	*	*
2r	2.BB-\	2.d-X/	4.BB-/	er-	.	.	2r	.	4.d-X\	er-	.
.	.	.	8BB-/	-go	.	.	.	.	8d-\	-go	.
[>2F/	.	.	4BB-/	ad-	.	.	4F/	E-	4d-\	ad-	.
.	4AA-X\	4c/	4AA-X/	-vo-	.	.	4F/	-ja	4c\	-vo-	.
=23	=23	=23	=23	=23	=23	=23	=23	=23	=23	=23	=23
4F/]	2.GG-X\	2.B-/	2.GG-X/	-ca-	.	.	8F/	er-	2.B-\	-ca-	.
.	.	.	.	.	.	.	8F/	-go	.	.	.
8E-/L	.	.	.	.	.	.	8E-/	ad-	.	.	.
8D-X/J	.	.	.	.	.	.	8D-X/	-vo-	.	.	.
4E-/	.	.	.	.	.	.	4E-/	-ca-	.	.	.
4En/	4GG-\	4c/	4GG-/	-ta	.	.	4En/	-ta	4c\	-ta	.
!!LO:LB:g=original
*v	*v	*	*	*	*	*	*	*	*	*	*
=24	=24	=24	=24	=24	=24	=24	=24	=24	=24	=24
4.FF\	4.A 4.F</	2FF/	no-	.	.	(<4.F/	no-	(>4.A/	no-	.
8F 8FF\	8c 8A/	.	.	.	.	8A/)	.	8c\)	.	.
4F 4FF\	4c 4A/	4F\	-stra,	.	.	4A/	-stra,	4c\	-stra	.
!	!	!	!	!	!LO:DY:a:rj	!	!	!	!	!LO:DY:a:rj
4c 4A 4F\	4cc 4a 4f/	8F\	il-	.	p	8A/	.	8c\	.	p
.	.	8F\	-los	.	.	8A/	.	8c\	.	.
=25	=25	=25	=25	=25	=25	=25	=25	=25	=25	=25
[>2d-X [>2B- [>2G [<2En\	[>2dd-X [>2b- [<2g/	4En\	tu-	.	.	4G/	.	4d-X\	.	.
.	.	8E\	-os	.	.	8G/	.	8d-\	.	.
.	.	8E\	mi-	.	.	8G/	.	8d-\	.	.
8d-]L 8B-] 8G] 8E\]	8dd-]L 8b-] 8g/]	8E\	-se-	.	.	8G/	.	8d-\	.	.
8d- 8B- 8G 8E\	8dd- 8b- 8g/	8E\	-ri-	.	.	8G/	.	8d-\	.	.
8d- 8B- 8G 8E\	8dd- 8b- 8g/	8E\	-cor-	.	.	8G/	.	8d-\	.	.
8d-J 8B- 8G 8E\	8b-J 8g/	8E\	-des	.	.	8G/	.	8B-\	.	.
=26	=26	=26	=26	=26	=26	=26	=26	=26	=26	=26
*^	*	*	*	*	*	*	*	*	*	*
*	*	*^	*	*	*	*	*	*	*	*	*
8.d-XL 8.B-/	4F\	8.dd-XL 8.b-/	8.f\L	8.F\	o-	.	.	8.B-/	.	8.d-X\	.	.
16cJk 16A/	.	16ccJk 16a/	16f\Jk	16F\	-cu-	.	.	16A/	.	16c\	.	.
4c 4A/	4F\	4cc 4a/	4f\	4F\	-los	.	.	4A/	.	4c\	.	.
2ryy	2r	4r	2ryy	2r	.	.	.	2r	.	4r	.	.
!	!	!	!	!	!	!	!	!	!	!	!	!LO:DY:a:rj
.	.	4cc 4c/	.	.	.	.	.	.	.	4c\	Ad	f
*	*	*v	*v	*	*	*	*	*	*	*	*	*
=27	=27	=27	=27	=27	=27	=27	=27	=27	=27	=27	=27
4rG	2rBB	4.ff 4.f/	2r	.	.	.	4r	.	4.f\	nos	.
4A/	.	.	.	.	.	.	4A/	Ad	.	.	.
.	.	8ee-X 8e-X/	.	.	.	.	.	.	8d\	ad	.
4B-/	4r	4dd-X 4d-X/	4r	.	.	.	4B-/	nos	4d-X\	nos	.
4B-/	4A-X\	4ddn 4dn/	4A-X\	Ad	.	.	4B-/	con-	4dn\	con-	.
!!LO:PB:g=original
*v	*v	*	*	*	*	*	*	*	*	*	*
=28	=28	=28	=28	=28	=28	=28	=28	=28	=28	=28
2B- 2G\	4.ee- 4.e-/	8.G\	nos	.	.	2B-\	-ver-	(>4.e-\	-ver-	.
.	.	16G\	con-	.	.	.	.	.	.	.
.	.	4G\	-ver-	.	.	.	.	.	.	.
.	8dd-X 8d-X/	.	.	.	.	.	.	8d-X\)	.	.
4A-X 4AA-X/	4cc 4c/	4A-X\	-te	.	.	4A-X/	-te	4c\	-te	.
4G 4GG/	4cc 4a-X 4c/	4G\	et	.	.	4A-/	.	4c\	et	.
=29	=29	=29	=29	=29	=29	=29	=29	=29	=29	=29
*	*^	*	*	*	*	*	*	*	*	*
2F 2FF/	4.dd-X/	2a-X 2d-X\	4.F\	Je-	.	.	4.A-X/	.	4.d-X\	Je-	.
.	8cc/	.	8F\	-sum	.	.	8A-/	.	8c\	-sum	.
4G 4GG/	2b- 2g 2d-/	2ryy	4G\	be-	.	.	4G/	.	4B-\	be-	.
4F 4FF/	.	.	4F\	-ne-	.	.	4G/	.	4B-\	-ne-	.
=30	=30	=30	=30	=30	=30	=30	=30	=30	=30	=30	=30
2En 2EEn/	4cc/	2g 2c\	2En\	-di-	.	.	2G/	.	(>4c\	-di-	.
.	4b-/	.	.	.	.	.	.	.	4B-\)	.	.
2F 2FF/	2a-X 2f 2c/	2ryy	2F\	-ctum	.	.	2F/	.	2A-X/	-ctum	.
=31	=31	=31	=31	=31	=31	=31	=31	=31	=31	=31	=31
4r	4r	4ryy	4r	.	.	.	4r	.	4r	.	.
4c 4An 4F 4E-X\	4an/	2.f\	8E-\	fru-	.	.	8F/	.	8An/	fru-	.
.	.	.	8E-\	-ctum	.	.	8F/	.	8A/	-ctum	.
4B- 4F 4D-X\	4b-/	.	4D-X\	ven-	.	.	4F/	.	4B-\	ven-	.
4d-X 4F 4BB-\	4dd-X 4b-/	.	4BB-/	-tris	.	.	4B-\	.	4d-X\	-tris	.
!!LO:LB:g=original
=32	=32	=32	=32	=32	=32	=32	=32	=32	=32	=32	=32
2c 2A-X 2F 2C\	2a-X 2f/	2ryy	1C	tu-	.	.	2.F/	.	(>2A-X/	.	.
2c 2G 2C\	4g/	4f\	.	.	.	.	.	.	4G/	.	.
.	4cc/	4en\	.	.	.	.	4En/	.	4c\)	.	.
*	*v	*v	*	*	*	*	*	*	*	*	*
=33	=33	=33	=33	=33	=33	=33	=33	=33	=33	=33
2d-X 2F 2D-X\	2a 2f/	2D-X/	-i	.	.	2F/	.	2A-X/	.	.
2B- 2F 2BB-\	4ff 4dd-X 4f\	4BB-/	fru-	.	.	4d-X\	.	4f\	.	.
.	4dd- 4b- 4f/	4BB-/	-ctum	.	.	4B-\	.	4d-X\	.	.
=34	=34	=34	=34	=34	=34	=34	=34	=34	=34	=34
*^	*	*	*	*	*	*	*	*	*	*
*	*	*^	*	*	*	*	*	*	*	*	*
8cL 8A-X/	2C\	8ccL 8a-X/	2ryy	4C/	ven-	.	.	(<8A-X/L	.	(>8c\L	.	.
8B-J 8G/	.	8b-J 8g/	.	.	.	.	.	8G/J)	.	8B-\J)	.	.
4A-X 4F/	.	4a-X 4f/	.	4C/	-tris	.	.	4F/	.	4A-X/	.	.
4G 4F/	4C\	4g/	4f\	2C/	tu-	.	.	(<4G/	.	(>4G/	.	.
4c 4G 4C\	4ryy	4cc/	4en\	.	.	.	.	4En/)	.	4c\)	.	.
*v	*v	*	*	*	*	*	*	*	*	*	*	*
=35	=35	=35	=35	=35	=35	=35	=35	=35	=35	=35	=35
2c 2An 2F\	2an 2f/	2ryy	2F\	-i	.	.	2F/	.	2An/	.	.
4r	4r	4ryy	4r	.	.	.	4r	.	4r	.	.
!	!	!	!	!	!	!LO:DY:a:rj	!	!	!	!	!LO:DY:a:rj
4c 4A 4F\	4cc/	4a\	(>4F\	no-	.	pp	(>4A/	.	(>4c\	.	pp
!!LO:PB:g=original
=36	=36	=36	=36	=36	=36	=36	=36	=36	=36	=36	=36
2.e- 2.c 2.F\	2.ee-/	2.cc\	4F\)	.	.	.	4c\)	.	4e-\)	.	.
.	.	.	8F\	-bis	.	.	8c\	.	8e-\	.	.
.	.	.	8F\	post	.	.	8c\	.	8e-\	.	.
.	.	.	4F\	hoc	.	.	4c\	.	4e-\	.	.
4c 4A 4G-X\	4cc/	4a\	4G-X\	e-	.	.	4A/	.	4c\	.	.
*	*v	*v	*	*	*	*	*	*	*	*	*
=37	=37	=37	=37	=37	=37	=37	=37	=37	=37	=37
*^	*	*	*	*	*	*	*	*	*	*
4.e- 4.c/	2F\	4.ee- 4.cc\	4.F\	-xi-	.	.	4.c\	.	4.e-\	.	.
8c 8A/	.	8cc 8a\	8F\	-li-	.	.	8A/	.	8c\	.	.
4e- 4c 4F\	4ryy	4ee- 4cc\	4F\	-um	.	.	4c\	.	4e-\	.	.
4c 4A/	4G-X\	4cc 4a\	[>4F\	no-	.	.	(>4A/	.	(>4c\	.	.
*v	*v	*	*	*	*	*	*	*	*	*	*
=38	=38	=38	=38	=38	=38	=38	=38	=38	=38	=38
*	*^	*	*	*	*	*	*	*	*	*
2.e- 2.c 2.F\	2.ee-/	2.cc\	4F\]	.	.	.	4c\)	.	4e-\)	.	.
.	.	.	8F\	-bis	.	.	8c\	.	8e-\	.	.
.	.	.	8F\	post	.	.	8c\	.	8e-\	.	.
.	.	.	4F\	hoc	.	.	4c\	.	4e-\	.	.
4c 4A 4G-X\	4cc/	4a\	4G-X\	e-	.	.	4A/	.	4c\	.	.
=39	=39	=39	=39	=39	=39	=39	=39	=39	=39	=39	=39
*^	*	*	*	*	*	*	*	*	*	*	*
4.e- 4.c/	2.F\	4.ee- 4.cc\	2.ryy	4.F\	-xi-	.	.	4.c\	.	4.e-\	.	.
8c 8A/	.	8cc 8a\	.	8F\	-li-	.	.	8A/	.	8c\	.	.
!	!	!	!	!	!	!	!	!	!	!LO:TX:t=P:problem:w źrodle poprawki skryptora dla całej partytury, przejścia między systemami oznaczone jako vi-de oraz re-tur	!	!
!	!	!	!	!	!	!	!	!	!	!LO:TX:a:Bi:t=X vi	!	!
4e- 4c/	.	4ee- 4cc\	.	4F\	-um	.	.	4c\	.	4e-\	.	.
!!LO:PB:g=original
!	!	!	!	!	!	!	!	!	!	!LO:TX:a:Bi:t=X de	!	!
!	!	!	!	!	!	!	!LO:DY:a:rj	!	!	!	!	!LO:DY:a:rj
4F 4FF/	4ryy	4cc/	4a\	(>4F\	no-	.	f	(>4A/	.	(>4c\	.	f
*v	*v	*	*	*	*	*	*	*	*	*	*	*
=40	=40	=40	=40	=40	=40	=40	=40	=40	=40	=40	=40
2.G-X 2.GG-X/	4b-/	4b-\	4G-X\)	.	.	.	4B-/)	.	4B-\)	.	.
.	8b-/L	2b-\	8G-\	-bis	.	.	8B-/	.	8B-\	.	<
.	8cc/J	.	8G-\	post	.	.	8B-/	.	8c\	.	.
.	4dd-X/	.	4G-\	hoc	.	.	4B-/	.	4d-X\	.	.
4G- 4GG-/	4ee-/	4b-\	4G-\	e-	.	.	4B-/	.	4e-\	.	.
=41	=41	=41	=41	=41	=41	=41	=41	=41	=41	=41	=41
[>2F [<2FF/	2ff 2a\	2.ryy	4.F\	-xi-	.	.	4.A/	.	4.f\	.	.
.	.	.	8F\	-li-	.	.	8A/	.	8f\	.	[
4F] 4FF/]	4f/	.	4F\	-um	.	.	4F/	.	4F/	.	.
4c 4A 4F\	8ff/L	4a\	(>4F\	O-	.	.	(<4A/	.	(>8f\L	O	.
!	!	!	!	!	!	!	!	!	!LO:TX:a:Bi:t=re:problem: obok przekreślone O	!	!
.	8ee-/J	.	.	.	.	.	.	.	8e-\J	.	.
!!LO:PB:g=original
*	*v	*v	*	*	*	*	*	*	*	*	*
=42	=42	=42	=42	=42	=42	=42	=42	=42	=42	=42
!	!	!	!	!	!	!	!	!LO:TX:a:Bi:t=tur:problem: obok przekreślone O	!	!
2d 2B-\	2dd 2b- 2f/	2BB-/	.	.	.	1B-)	.	2d\	.	.
4e- 4B- 4G\	4ee- 4b- 4g\	4G\	.	.	.	.	.	4e-\	.	.
4e- 4B- 4G 4E-\	4gg 4ee- 4b- 4g\	4E-\)	.	.	.	.	.	4g\)	.	.
=43	=43	=43	=43	=43	=43	=43	=43	=43	=43	=43
2d 2B- 2F\	2dd 2b- 2f/	2F\	-sten-	.	.	2B-/	.	2d\	.	.
4c 4A 4F\	4cc 4a 4f/	4F\	-de,	.	.	4A/	.	4c\	.	.
4F\	4f/	4F\	o	.	.	4F/	.	4F/	.	.
=44	=44	=44	=44	=44	=44	=44	=44	=44	=44	=44
2c 2A 2F\	2ff 2a 2f\	2F\	cle-	.	.	2A/	.	2f\	.	.
4e- 4B- 4E-\	4gg 4b- 4g\	4E-\	-mens	.	.	4B-/	.	4g\	.	.
4d 4B- 4D\	4ff 4b- 4f\	4D\	o	.	.	4B-/	.	4f\	.	.
=45	=45	=45	=45	=45	=45	=45	=45	=45	=45	=45
*^	*	*	*	*	*	*	*	*	*	*
*	*	*^	*	*	*	*	*	*	*	*	*
*	*^	*	*	*	*	*	*	*	*	*	*	*
2c/	4G/	2C\	4.ff/	4g\	2C/	pi-	.	.	(<4G/	.	(>4.f\	.	.
.	4A/	.	.	4a\	.	.	.	.	4A/)	.	.	.	.
.	.	.	8ee-/	.	.	.	.	.	.	.	8e-\)	.	.
8B- 8BB-\	2ryy	2ryy	8dd/	8b-\	8BB-/	-a	.	.	8B-/	.	8d\	.	.
8r	.	.	8r	8ryy	8r	.	.	.	8r	.	8r	.	.
!	!	!	!	!	!	!	!	!LO:DY:a:rj	!	!	!	!	!LO:DY:a:rj
4B- 4F 4D\	.	.	4b- 4f/	4ryy	4D\	o	.	p	4F/	.	4B-\	.	p
*	*v	*v	*	*	*	*	*	*	*	*	*	*	*
*v	*v	*	*	*	*	*	*	*	*	*	*	*
*	*v	*v	*	*	*	*	*	*	*	*	*
=46	=46	=46	=46	=46	=46	=46	=46	=46	=46	=46
2c 2A 2F\	2cc 2a 2f/	4F\	dul-	.	.	4A/	.	4c\	.	.
.	.	4F\	-cis	.	.	4A/	.	4c\	.	.
4B- 4F 4BB-\	4dd 4b- 4f/	4BB-/	vir-	.	.	4B-/	.	4d\	.	.
4B- 4F 4D\	4b- 4f/	8D\	-go	.	.	8F/	.	8B-\	.	.
.	.	8D\	Ma-	.	.	8F/	.	8B-\	.	.
!!LO:PB:g=original
=47	=47	=47	=47	=47	=47	=47	=47	=47	=47	=47
*^	*	*	*	*	*	*	*	*	*	*
*	*	*^	*	*	*	*	*	*	*	*	*
!	!	!	!	!	!	!	!	!	!	!LO:TX:a:t=P:w źródle ten system na następnej stronie w skanie [dotyczy całej partytury]:problem	!	!
4.c 4.A/	2F\	4.cc 4.a/	2f\	2F\	-ri-	.	.	(<4.A/	.	(>4.c\	.	.
8d 8B-/	.	8dd 8b-/	.	.	.	.	.	8B-/)	.	8d\)	.	.
4c 4A/	4F\	4cc 4a/	4f\	4F\	-a	.	.	4A/	.	4c\	.	.
4c 4A/	4F\	4cc 4a/	4f\	4E-\	O	.	<[	4A/	.	4c\	.	<[
*v	*v	*	*	*	*	*	*	*	*	*	*	*
*	*v	*v	*	*	*	*	*	*	*	*	*
=48	=48	=48	=48	=48	=48	=48	=48	=48	=48	=48
!	!	!	!	!	!LO:DY:a:rj	!	!	!	!	!LO:DY:a:rj
2.d 2.B- 2.F 2.D\	2.ff 2.b- 2.f\	2D\	cle-	.	f	2B-\	.	2f\	.	f
.	.	4D\	-mens	.	.	4B-\	.	4f\	.	.
4B-\	4b-\	4BB-/	o	.	.	4B-\	.	4B-\	.	.
=49	=49	=49	=49	=49	=49	=49	=49	=49	=49	=49
2e- 2B- 2G 2E-\	2gg 2ee- 2b- 2g\	2E-\	pi-	.	.	2B-\	.	2g\	.	.
4c 4G 4C\	4ee- 4cc 4g\	4C/	-ia	.	.	4c\	.	4e-\	.	.
4c 4G 4E-\	4cc 4g/	4E-\	o	.	.	4G/	.	4c\	.	.
=50	=50	=50	=50	=50	=50	=50	=50	=50	=50	=50
*^	*	*	*	*	*	*	*	*	*	*
*	*	*^	*	*	*	*	*	*	*	*	*
!	!	!	!	!	!	!	!LO:DY:a:rj	!	!	!	!	!LO:DY:a:rj
4d/	2B- 2F\	4dd/	2b- 2f\	4F\	dul-	.	p	4B-\	.	4d\	.	p
4d-X/	.	4dd-X/	.	4F\	-cis	.	.	4B-\	.	4d-X\	.	.
4c 4B- 4F\	2ryy	4cc/	4b- 4f\	4F\	vir-	.	.	4B-\	.	4c\	.	.
4c 4A 4F\	.	8cc/L	4a 4f\	8F\	-go	.	.	8A\	.	8c\	.	.
.	.	8ff/J	.	8F\	Ma-	.	.	8A\	.	8f\	.	.
!!LO:LB:g=original
=51	=51	=51	=51	=51	=51	=51	=51	=51	=51	=51	=51	=51
2e-/	4B- 4G\	2ee-/	4b- 4g\	(>4G\	-ri-	.	.	(>4B-\	.	2e-\	.	.
.	4c 4A\	.	4cc 4f\	4A\)	.	.	.	4c\)	.	.	.	.
8d/	8B-\	8dd/	8b- 8f\	8B-\	-a	.	.	8B-\	.	8d\	.	.
8r	8ryy	8r	8r	8r	.	.	.	8r	.	8r	.	.
!	!	!	!	!	!	!	!LO:DY:a:rj	!	!	!	!	!LO:DY:a:rj
4B-\	4ryy	4b-/	4b-\	4BB-/	o	.	f	4B-\	.	4B-\	.	f
*v	*v	*	*	*	*	*	*	*	*	*	*	*
=52	=52	=52	=52	=52	=52	=52	=52	=52	=52	=52	=52
2e- 2B- 2G\	2ee- 2b- 2g/	2ryy	2G\	cle-	.	.	2B-\	.	2e-\	.	.
4d 4B- 4F\	4dd/	4b-\	4F\	-mens	.	.	4B-\	.	4d\	.	.
8r	8r	4ryy	8r	.	.	.	8r	.	8r	.	.
8B-\	8b-\	.	8BB-/	o	.	.	8B-\	.	8B-\	.	.
*	*v	*v	*	*	*	*	*	*	*	*	*
=53	=53	=53	=53	=53	=53	=53	=53	=53	=53	=53
2e- 2B- 2G 2E-\	2gg 2ee- 2b- 2g\	2E-\	[[dul-	pi-	.	2B-\	.	2g\	.	.
4d 4B- 4F 4D\	4ff 4b- 4f\	4D\	-cis]]	-a	.	4B-\	.	4f\	.	.
!	!	!	!	!	!LO:DY:a:rj	!	!	!	!	!LO:DY:a:rj
4c 4G-X 4E-\	4cc 4g-X/	4E-\	o	.	p	4G-X/	.	4c\	.	p
=54	=54	=54	=54	=54	=54	=54	=54	=54	=54	=54
*^	*	*	*	*	*	*	*	*	*	*
*	*	*^	*	*	*	*	*	*	*	*	*
4d/	2B- 2F\	4dd/	2b- 2f\	4F\	dul-	.	.	4B-/	.	4d\	.	.
4d-X/	.	4dd-X/	.	4F\	-cis	.	.	4B-/	.	4d-X\	.	.
4c 4B-/	4F\	4cc 4b-/	4f\	4F\	vir-	.	.	4B-/	.	4c\	.	.
4c 4A/	4F\	4ff/	4a 4f\	8F\	-go	.	.	8B-/	.	8c\	.	.
.	.	.	.	8F\	Ma-	.	.	8A/	.	8f\	.	.
*v	*v	*	*	*	*	*	*	*	*	*	*	*
*	*v	*v	*	*	*	*	*	*	*	*	*
=55	=55	=55	=55	=55	=55	=55	=55	=55	=55	=55
2.B- 2.F 2.BB-\	2.ddn 2.b- 2.f/	2BB-/	-ri-	.	.	2B-\	.	2dn\	.	.
.	.	4BB-/	-a,	.	.	4B-\	.	4d\	.	.
4r	4r	4r	.	.	.	4r	.	4r	.	.
!!LO:PB:g=original
=56	=56	=56	=56	=56	=56	=56	=56	=56	=56	=56
!	!	!	!	!	!LO:DY:a:rj	!	!	!	!	!LO:DY:a:rj
1B- 1G-X 1E- 1BB-	1ee- 1b- 1g-X	1BB-	A-	.	f	1G-X	.	1e-	.	f
=57	=57	=57	=57	=57	=57	=57	=57	=57	=57	=57
2.B- 2.F 2.D 2.BB-\	2.dd 2.b- 2.f/	2.BB-/	-men	.	.	2.F/	.	2.d\	.	.
4r	4r	4r	.	.	.	4r	.	4r	.	.
=58	=58	=58	=58	=58	=58	=58	=58	=58	=58	=58
!	!	!	!	!	!LO:DY:a:rj	!	!	!	!	!LO:DY:a:rj
!	!	!	!	!	!LO:HP:a	!	!	!	!	!LO:HP:a
1B- 1G-X 1E- 1BB-	1ee- 1b- 1g-X	[<1BB-	a-	.	p <	(>1G-X	.	(>1e-	.	p <
=59	=59	=59	=59	=59	=59	=59	=59	=59	=59	=59
2B- 2F 2D 2BB-\	2dd 2b- 2f/	1BB-]	.	.	.	2F/	.	2d\	.	.
2B- 2G 2En 2BB-\	2cc#X 2b- 2g 2en/	.	.	.	[[	2G 2En/)	.	2c#X\)	.	[[
=60	=60	=60	=60	=60	=60	=60	=60	=60	=60	=60
!	!	!	!	!	!LO:DY:a:rj	!	!	!	!	!LO:DY:a:rj
1B- 1F 1D 1BB-	1dd 1b- 1f	1BB-	-men.	.	f	1F	.	1d	.	f
==	==	==	==	==	==	==	==	==	==	==
*-	*-	*-	*-	*-	*-	*-	*-	*-	*-	*-
!!title: @{OTL};
!!!RDF**kern: > = above
!!!RDF**kern: < = below
!!!RDF**kern: | = vertical stroke
!!!RDF**kern: N = linked
!!!RDF**kern: i = editorial accidental
!!!EED: Wojciech Jakubiak-Danek
!!!EST: 2021-06-09
!!!URL-scan: http://repozytorium.nifc.pl/skany/pl-wtm-nut--r1607
!!!ONB-nifc: UWAGA: części Requiem: 1. Requiem aeternam, 2. Dies irae, 3. Offertorium, 4. Sanctus, 5. Benedicuts, 6. Agnus Dei, 7. Salve Regina
!!!AIN: 2 empty 1 organ 2 tenor
!!!ENC: Andrzej Gręziak
!!!END: 2021-06-05
